_includes/cc-by-sa.svg

<?xml version="1.0" encoding="UTF-8" standalone="no"?>
<!-- Created with Inkscape (http://www.inkscape.org/) -->
<svg
   xmlns:dc="http://purl.org/dc/elements/1.1/"
   xmlns:cc="http://web.resource.org/cc/"
   xmlns:rdf="http://www.w3.org/1999/02/22-rdf-syntax-ns#"
   xmlns:svg="http://www.w3.org/2000/svg"
   xmlns="http://www.w3.org/2000/svg"
   xmlns:sodipodi="http://sodipodi.sourceforge.net/DTD/sodipodi-0.dtd"
   xmlns:inkscape="http://www.inkscape.org/namespaces/inkscape"
   width="120"
   height="42"
   id="svg2759"
   sodipodi:version="0.32"
   inkscape:version="0.45+devel"
   version="1.0"
   sodipodi:docname="by-sa.svg"
   inkscape:output_extension="org.inkscape.output.svg.inkscape">
  <defs
     id="defs2761" />
  <sodipodi:namedview
     id="base"
     pagecolor="#ffffff"
     bordercolor="#8b8b8b"
     borderopacity="1"
     gridtolerance="10000"
     guidetolerance="10"
     objecttolerance="10"
     inkscape:pageopacity="0.0"
     inkscape:pageshadow="2"
     inkscape:zoom="1"
     inkscape:cx="179"
     inkscape:cy="89.569904"
     inkscape:document-units="px"
     inkscape:current-layer="layer1"
     width="120px"
     height="42px"
     inkscape:showpageshadow="false"
     inkscape:window-width="1198"
     inkscape:window-height="624"
     inkscape:window-x="488"
     inkscape:window-y="401" />
  <metadata
     id="metadata2764">
    <rdf:RDF>
      <cc:Work
         rdf:about="">
        <dc:format>image/svg+xml</dc:format>
        <dc:type
           rdf:resource="http://purl.org/dc/dcmitype/StillImage" />
      </cc:Work>
    </rdf:RDF>
  </metadata>
  <g
     inkscape:label="Layer 1"
     inkscape:groupmode="layer"
     id="layer1">
    <g
       transform="matrix(0.9937807,0,0,0.9936694,-177.69409,-74.436409)"
       id="g287"
       inkscape:export-filename="/mnt/hgfs/Bov/Documents/Work/2007/cc/identity/srr buttons/big/by-sa.png"
       inkscape:export-xdpi="300.23013"
       inkscape:export-ydpi="300.23013">
	<path
   id="path3817_2_"
   nodetypes="ccccccc"
   d="M 182.23532,75.39014 L 296.29928,75.59326 C 297.89303,75.59326 299.31686,75.35644 299.31686,78.77344 L 299.17721,116.34033 L 179.3569,116.34033 L 179.3569,78.63379 C 179.3569,76.94922 179.51999,75.39014 182.23532,75.39014 z"
   style="fill:#aab2ab" />

	<g
   id="g5908_2_"
   transform="matrix(0.872921,0,0,0.872921,50.12536,143.2144)">
		
			<path
   id="path5906_2_"
   cx="296.35416"
   ry="22.939548"
   cy="264.3577"
   type="arc"
   rx="22.939548"
   d="M 187.20944,-55.6792 C 187.21502,-46.99896 180.18158,-39.95825 171.50134,-39.95212 C 162.82113,-39.94708 155.77929,-46.97998 155.77426,-55.66016 C 155.77426,-55.66687 155.77426,-55.67249 155.77426,-55.6792 C 155.76922,-64.36054 162.80209,-71.40125 171.48233,-71.40631 C 180.16367,-71.41193 187.20441,-64.37842 187.20944,-55.69824 C 187.20944,-55.69263 187.20944,-55.68591 187.20944,-55.6792 z"
   style="fill:#ffffff" />

		<g
   id="g5706_2_"
   transform="translate(-289.6157,99.0653)">
			<path
   id="path5708_2_"
   d="M 473.88455,-167.54724 C 477.36996,-164.06128 479.11294,-159.79333 479.11294,-154.74451 C 479.11294,-149.69513 477.40014,-145.47303 473.9746,-142.07715 C 470.33929,-138.50055 466.04281,-136.71283 461.08513,-136.71283 C 456.18736,-136.71283 451.96526,-138.48544 448.42003,-142.03238 C 444.87419,-145.57819 443.10158,-149.81537 443.10158,-154.74451 C 443.10158,-159.6731 444.87419,-163.94049 448.42003,-167.54724 C 451.87523,-171.03375 456.09728,-172.77618 461.08513,-172.77618 C 466.13342,-172.77618 470.39914,-171.03375 473.88455,-167.54724 z M 450.76657,-165.20239 C 447.81982,-162.22601 446.34701,-158.7395 446.34701,-154.74005 C 446.34701,-150.7417 447.80529,-147.28485 450.72125,-144.36938 C 453.63778,-141.45288 457.10974,-139.99462 461.1383,-139.99462 C 465.16683,-139.99462 468.66848,-141.46743 471.64486,-144.41363 C 474.47076,-147.14947 475.88427,-150.59069 475.88427,-154.74005 C 475.88427,-158.85809 474.44781,-162.35297 471.57659,-165.22479 C 468.70595,-168.09546 465.22671,-169.53131 461.1383,-169.53131 C 457.04993,-169.53131 453.59192,-168.08813 450.76657,-165.20239 z M 458.52106,-156.49927 C 458.07074,-157.4809 457.39673,-157.9715 456.49781,-157.9715 C 454.90867,-157.9715 454.11439,-156.90198 454.11439,-154.763 C 454.11439,-152.62341 454.90867,-151.55389 456.49781,-151.55389 C 457.54719,-151.55389 458.29676,-152.07519 458.74647,-153.11901 L 460.94923,-151.94598 C 459.8993,-150.0805 458.32417,-149.14697 456.22374,-149.14697 C 454.60384,-149.14697 453.30611,-149.64367 452.33168,-150.63653 C 451.35561,-151.62994 450.86894,-152.99926 450.86894,-154.7445 C 450.86894,-156.46008 451.37123,-157.82159 452.37642,-158.83013 C 453.38161,-159.83806 454.63347,-160.34264 456.13423,-160.34264 C 458.35435,-160.34264 459.94407,-159.46776 460.90504,-157.71978 L 458.52106,-156.49927 z M 468.8844,-156.49927 C 468.43353,-157.4809 467.77292,-157.9715 466.90201,-157.9715 C 465.28095,-157.9715 464.46988,-156.90198 464.46988,-154.763 C 464.46988,-152.62341 465.28095,-151.55389 466.90201,-151.55389 C 467.95304,-151.55389 468.68918,-152.07519 469.10925,-153.11901 L 471.36126,-151.94598 C 470.31301,-150.0805 468.74007,-149.14697 466.64358,-149.14697 C 465.02587,-149.14697 463.73095,-149.64367 462.75711,-150.63653 C 461.78494,-151.62994 461.29773,-152.99926 461.29773,-154.7445 C 461.29773,-156.46008 461.79221,-157.82159 462.78061,-158.83013 C 463.76843,-159.83806 465.02588,-160.34264 466.55408,-160.34264 C 468.77027,-160.34264 470.35776,-159.46776 471.3154,-157.71978 L 468.8844,-156.49927 z" />

		</g>

	</g>

	<path
   d="M 297.29639,74.91064 L 181.06688,74.91064 C 179.8203,74.91064 178.80614,75.92529 178.80614,77.17187 L 178.80614,116.66748 C 178.80614,116.94922 179.03466,117.17822 179.31639,117.17822 L 299.04639,117.17822 C 299.32813,117.17822 299.55713,116.94922 299.55713,116.66748 L 299.55713,77.17188 C 299.55713,75.92529 298.54297,74.91064 297.29639,74.91064 z M 181.06688,75.93213 L 297.29639,75.93213 C 297.97998,75.93213 298.53565,76.48828 298.53565,77.17188 C 298.53565,77.17188 298.53565,93.09131 298.53565,104.59034 L 215.4619,104.59034 C 212.41698,110.09571 206.55077,113.83399 199.81835,113.83399 C 193.083,113.83399 187.21825,110.09913 184.1748,104.59034 L 179.82666,104.59034 C 179.82666,93.09132 179.82666,77.17188 179.82666,77.17188 C 179.82664,76.48828 180.38329,75.93213 181.06688,75.93213 z"
   id="path294" />

	<g
   enable-background="new    "
   id="g296">
		<path
   d="M 265.60986,112.8833 C 265.68994,113.03906 265.79736,113.16504 265.93115,113.26172 C 266.06494,113.35791 266.22119,113.42969 266.40088,113.47608 C 266.58154,113.52296 266.76807,113.54639 266.96045,113.54639 C 267.09033,113.54639 267.22998,113.53565 267.3794,113.51368 C 267.52784,113.4922 267.66749,113.44972 267.79835,113.3877 C 267.92823,113.32569 268.03761,113.23975 268.12355,113.13086 C 268.21144,113.02197 268.25441,112.88379 268.25441,112.71533 C 268.25441,112.53515 268.19679,112.38916 268.08156,112.27685 C 267.9673,112.16455 267.81594,112.07177 267.62941,111.99658 C 267.44386,111.92236 267.23195,111.85693 266.9966,111.80078 C 266.76027,111.74463 266.52101,111.68262 266.27883,111.61377 C 266.02981,111.55176 265.78762,111.47559 265.55129,111.38525 C 265.31594,111.29541 265.10402,111.17822 264.9175,111.03515 C 264.73098,110.89208 264.58059,110.71337 264.46535,110.49853 C 264.35109,110.28369 264.29347,110.02392 264.29347,109.71923 C 264.29347,109.37646 264.36671,109.07958 264.51222,108.82763 C 264.6587,108.57568 264.85011,108.36572 265.08644,108.19726 C 265.32179,108.02929 265.58937,107.90478 265.8882,107.82372 C 266.18605,107.74315 266.48488,107.70263 266.78273,107.70263 C 267.13136,107.70263 267.46535,107.74169 267.78566,107.81982 C 268.105,107.89746 268.39015,108.02392 268.6382,108.19824 C 268.88722,108.37256 269.08449,108.59521 269.23097,108.86621 C 269.37648,109.13721 269.44972,109.46582 269.44972,109.85156 L 268.02784,109.85156 C 268.01514,109.65234 267.97315,109.4873 267.90284,109.35693 C 267.83155,109.22607 267.73682,109.12353 267.61964,109.04834 C 267.50148,108.97412 267.36671,108.9209 267.21534,108.89014 C 267.063,108.85889 266.89796,108.84326 266.71827,108.84326 C 266.60108,108.84326 266.48292,108.85596 266.36573,108.88037 C 266.24757,108.90576 266.14112,108.94922 266.04542,109.01123 C 265.94874,109.07373 265.86964,109.15137 265.80812,109.24463 C 265.7466,109.33838 265.71535,109.45654 265.71535,109.59961 C 265.71535,109.73047 265.73976,109.83643 265.78957,109.91699 C 265.83937,109.99804 265.93801,110.07275 266.08352,110.14111 C 266.22903,110.20947 266.43118,110.27832 266.68899,110.34668 C 266.9468,110.41504 267.28372,110.50244 267.70071,110.60791 C 267.82473,110.63281 267.99661,110.67822 268.21731,110.74365 C 268.43801,110.80908 268.65676,110.91308 268.87454,111.05615 C 269.09231,111.1997 269.27981,111.39111 269.43899,111.63037 C 269.59719,111.87012 269.67629,112.17676 269.67629,112.55029 C 269.67629,112.85547 269.61672,113.13867 269.49856,113.3999 C 269.3804,113.66162 269.20461,113.8872 268.97122,114.07666 C 268.73782,114.26709 268.44876,114.41455 268.10403,114.52051 C 267.75833,114.62647 267.35794,114.6792 266.90481,114.6792 C 266.53762,114.6792 266.18118,114.63379 265.83547,114.54346 C 265.49074,114.45313 265.18508,114.31104 264.92043,114.11768 C 264.65676,113.92432 264.4468,113.67774 264.29055,113.37891 C 264.13528,113.07959 264.06106,112.7251 264.06692,112.31397 L 265.4888,112.31397 C 265.48877,112.53809 265.52881,112.72803 265.60986,112.8833 z"
   id="path298"
   style="fill:#ffffff" />

		<path
   d="M 273.8667,107.8667 L 276.35986,114.53076 L 274.8374,114.53076 L 274.33349,113.04638 L 271.84033,113.04638 L 271.31787,114.53076 L 269.84326,114.53076 L 272.36377,107.8667 L 273.8667,107.8667 z M 273.95068,111.95264 L 273.11084,109.50928 L 273.09229,109.50928 L 272.22315,111.95264 L 273.95068,111.95264 z"
   id="path300"
   style="fill:#ffffff" />

	</g>

	<g
   enable-background="new    "
   id="g302">
		<path
   d="M 239.17821,107.8667 C 239.49559,107.8667 239.78563,107.89502 240.04735,107.95068 C 240.30907,108.00683 240.53368,108.09863 240.72118,108.22607 C 240.9077,108.35351 241.05321,108.52295 241.15575,108.73437 C 241.25829,108.94579 241.31005,109.20703 241.31005,109.51806 C 241.31005,109.854 241.23388,110.13329 241.08056,110.35742 C 240.92822,110.58154 240.70165,110.76465 240.40283,110.90771 C 240.81494,111.02587 241.12256,111.23291 241.32568,111.5288 C 241.5288,111.82469 241.63037,112.18114 241.63037,112.59814 C 241.63037,112.93408 241.56494,113.22509 241.43408,113.47119 C 241.30322,113.7168 241.12646,113.91748 240.90576,114.07324 C 240.68408,114.229 240.43115,114.34424 240.14795,114.41845 C 239.86377,114.49365 239.57275,114.53075 239.27295,114.53075 L 236.03662,114.53075 L 236.03662,107.86669 L 239.17821,107.86669 L 239.17821,107.8667 z M 238.99071,110.56201 C 239.25243,110.56201 239.46727,110.5 239.63622,110.37597 C 239.80419,110.25146 239.88817,110.05029 239.88817,109.77099 C 239.88817,109.61572 239.85985,109.48828 239.80419,109.38915 C 239.74755,109.28954 239.67333,109.21239 239.57958,109.15624 C 239.48583,109.10058 239.37841,109.06151 239.25731,109.04003 C 239.13524,109.01806 239.00926,109.00732 238.8784,109.00732 L 237.50535,109.00732 L 237.50535,110.56201 L 238.99071,110.56201 z M 239.07664,113.39014 C 239.22019,113.39014 239.35691,113.37647 239.48777,113.34815 C 239.61863,113.32032 239.73484,113.27344 239.83445,113.2085 C 239.93406,113.14307 240.01316,113.0542 240.07273,112.94239 C 240.1323,112.83058 240.1616,112.68751 240.1616,112.51319 C 240.1616,112.17139 240.06492,111.92725 239.87156,111.78126 C 239.6782,111.63527 239.42234,111.56202 239.10496,111.56202 L 237.50535,111.56202 L 237.50535,113.39014 L 239.07664,113.39014 z"
   id="path304"
   style="fill:#ffffff" />

		<path
   d="M 241.88914,107.8667 L 243.53269,107.8667 L 245.09324,110.49854 L 246.64402,107.8667 L 248.27781,107.8667 L 245.80418,111.97315 L 245.80418,114.53077 L 244.33543,114.53077 L 244.33543,111.93604 L 241.88914,107.8667 z"
   id="path306"
   style="fill:#ffffff" />

	</g>

	<g
   id="g6316_1_"
   transform="matrix(0.624995,0,0,0.624995,391.2294,176.9332)">
		
			<path
   id="path6318_1_"
   cx="475.97119"
   ry="29.209877"
   cy="252.08646"
   type="arc"
   rx="29.209877"
   d="M -175.0083,-139.1153 C -175.00204,-129.7035 -182.62555,-122.06751 -192.03812,-122.06049 C -201.44913,-122.05341 -209.08512,-129.67774 -209.09293,-139.09028 C -209.09293,-139.09809 -209.09293,-139.10749 -209.09293,-139.1153 C -209.09919,-148.52784 -201.47413,-156.1623 -192.06311,-156.17011 C -182.65054,-156.17713 -175.01456,-148.55207 -175.0083,-139.14026 C -175.0083,-139.13092 -175.0083,-139.1239 -175.0083,-139.1153 z"
   style="fill:#ffffff" />

		<g
   id="g6320_1_"
   transform="translate(-23.9521,-89.72962)">
			<path
   id="path6322_1_"
   d="M -168.2204,-68.05536 C -173.39234,-68.05536 -177.76892,-66.25067 -181.35175,-62.64203 C -185.02836,-58.90759 -186.86588,-54.48883 -186.86588,-49.38568 C -186.86588,-44.28253 -185.02836,-39.89416 -181.35175,-36.22308 C -177.67673,-32.55114 -173.29859,-30.71521 -168.2204,-30.71521 C -163.07974,-30.71521 -158.62503,-32.56677 -154.85312,-36.26996 C -151.30307,-39.78558 -149.52652,-44.15827 -149.52652,-49.38568 C -149.52652,-54.6123 -151.33432,-59.03265 -154.94843,-62.64203 C -158.5625,-66.25067 -162.98599,-68.05536 -168.2204,-68.05536 z M -168.17352,-64.69519 C -163.936,-64.69519 -160.33752,-63.20221 -157.37655,-60.21466 C -154.38748,-57.25836 -152.89214,-53.64899 -152.89214,-49.38568 C -152.89214,-45.09186 -154.35466,-41.52856 -157.28438,-38.69653 C -160.36876,-35.64727 -163.99849,-34.12304 -168.17351,-34.12304 C -172.34856,-34.12304 -175.94701,-35.63244 -178.96892,-38.64965 C -181.9908,-41.66918 -183.50176,-45.24657 -183.50176,-49.38567 C -183.50176,-53.52398 -181.97518,-57.13414 -178.92205,-60.21465 C -175.9939,-63.20221 -172.41107,-64.69519 -168.17352,-64.69519 z" />

			<path
   id="path6324_1_"
   d="M -176.49548,-52.02087 C -175.75171,-56.71856 -172.44387,-59.22949 -168.30008,-59.22949 C -162.33911,-59.22949 -158.70783,-54.90448 -158.70783,-49.1372 C -158.70783,-43.50982 -162.57194,-39.13793 -168.39383,-39.13793 C -172.39856,-39.13793 -175.98297,-41.60277 -176.63611,-46.43877 L -171.93292,-46.43877 C -171.7923,-43.92778 -170.1626,-43.04418 -167.83447,-43.04418 C -165.1813,-43.04418 -163.4563,-45.50908 -163.4563,-49.27709 C -163.4563,-53.22942 -164.94693,-55.32244 -167.74228,-55.32244 C -169.79074,-55.32244 -171.55948,-54.57787 -171.93292,-52.02087 L -170.56418,-52.02789 L -174.26734,-48.32629 L -177.96894,-52.02789 L -176.49548,-52.02087 z" />

		</g>

	</g>

	<g
   id="g313">
		<circle
   cx="242.56226"
   cy="90.224609"
   r="10.8064"
   id="circle315"
   sodipodi:cx="242.56226"
   sodipodi:cy="90.224609"
   sodipodi:rx="10.8064"
   sodipodi:ry="10.8064"
   style="fill:#ffffff" />

		<g
   id="g317">
			<path
   d="M 245.68994,87.09766 C 245.68994,86.68116 245.35205,86.34424 244.93603,86.34424 L 240.16357,86.34424 C 239.74755,86.34424 239.40966,86.68115 239.40966,87.09766 L 239.40966,91.87061 L 240.74071,91.87061 L 240.74071,97.52295 L 244.3579,97.52295 L 244.3579,91.87061 L 245.68993,91.87061 L 245.68993,87.09766 L 245.68994,87.09766 z"
   id="path319" />

			<circle
   cx="242.5498"
   cy="84.083008"
   r="1.63232"
   id="circle321"
   sodipodi:cx="242.5498"
   sodipodi:cy="84.083008"
   sodipodi:rx="1.63232"
   sodipodi:ry="1.63232" />

		</g>

		<path
   clip-rule="evenodd"
   d="M 242.53467,78.31836 C 239.30322,78.31836 236.56641,79.4458 234.32715,81.70215 C 232.0293,84.03516 230.88086,86.79736 230.88086,89.98633 C 230.88086,93.1753 232.0293,95.91846 234.32715,98.21338 C 236.625,100.50781 239.36133,101.65527 242.53467,101.65527 C 245.74756,101.65527 248.53272,100.49853 250.88819,98.18359 C 253.10889,95.98681 254.21827,93.2539 254.21827,89.98632 C 254.21827,86.71874 253.08936,83.95751 250.83057,81.70214 C 248.57178,79.4458 245.80615,78.31836 242.53467,78.31836 z M 242.56396,80.41797 C 245.2124,80.41797 247.46142,81.35156 249.31103,83.21875 C 251.18115,85.06592 252.11572,87.32227 252.11572,89.98633 C 252.11572,92.66992 251.20068,94.89746 249.36963,96.66699 C 247.4419,98.57275 245.17334,99.52539 242.56397,99.52539 C 239.9546,99.52539 237.70557,98.58252 235.81739,96.6958 C 233.92774,94.80957 232.98389,92.57324 232.98389,89.98633 C 232.98389,87.3999 233.93799,85.14404 235.84619,83.21875 C 237.67676,81.35156 239.9165,80.41797 242.56396,80.41797 z"
   id="path323"
   style="fill-rule:evenodd" />

	</g>

</g>
  </g>
</svg>

<svg id="svg2759" xmlns:rdf="http://www.w3.org/1999/02/22-rdf-syntax-ns#" xmlns="http://www.w3.org/2000/svg" height="42" width="120" version="1.0" xmlns:cc="http://creativecommons.org/ns#" xmlns:dc="http://purl.org/dc/elements/1.1/">
 <g id="layer1">
  <g id="g287" transform="matrix(.99378 0 0 .99367 -177.69 -74.436)">
   <path id="path3817_2_" fill="#aab2ab" nodetypes="ccccccc" d="m182.24 75.39l114.06 0.203c1.59 0 3.02-0.237 3.02 3.18l-0.14 37.567h-119.82v-37.706c0-1.685 0.16-3.244 2.88-3.244z"/>
   <g id="g5908_2_" transform="matrix(.87292 0 0 .87292 50.125 143.21)">
    <path id="path5906_2_" d="m187.21-55.679c0.01 8.68-7.03 15.721-15.71 15.727-8.68 0.005-15.72-7.028-15.73-15.708v-0.019c0-8.682 7.03-15.722 15.71-15.727 8.68-0.006 15.72 7.028 15.73 15.708v0.019z" rx="22.939548" ry="22.939548" cy="264.3577" cx="296.35416" type="arc" fill="#fff"/>
    <g id="g5706_2_" transform="translate(-289.62 99.065)">
     <path id="path5708_2_" d="m473.88-167.55c3.49 3.49 5.23 7.76 5.23 12.81 0 5.04-1.71 9.27-5.14 12.66-3.63 3.58-7.93 5.37-12.88 5.37-4.9 0-9.12-1.78-12.67-5.32-3.55-3.55-5.32-7.79-5.32-12.71 0-4.93 1.77-9.2 5.32-12.81 3.46-3.48 7.68-5.23 12.67-5.23 5.04 0 9.31 1.75 12.79 5.23zm-23.11 2.35c-2.95 2.97-4.42 6.46-4.42 10.46s1.46 7.46 4.37 10.37c2.92 2.92 6.39 4.38 10.42 4.38s7.53-1.48 10.5-4.42c2.83-2.74 4.24-6.18 4.24-10.33 0-4.12-1.43-7.61-4.3-10.48-2.87-2.88-6.35-4.31-10.44-4.31s-7.55 1.44-10.37 4.33zm7.75 8.7c-0.45-0.98-1.12-1.47-2.02-1.47-1.59 0-2.39 1.07-2.39 3.21s0.8 3.21 2.39 3.21c1.05 0 1.8-0.53 2.25-1.57l2.2 1.17c-1.05 1.87-2.63 2.8-4.73 2.8-1.62 0-2.91-0.49-3.89-1.49-0.97-0.99-1.46-2.36-1.46-4.1 0-1.72 0.5-3.08 1.51-4.09 1-1.01 2.25-1.51 3.75-1.51 2.22 0 3.81 0.87 4.78 2.62l-2.39 1.22zm10.36 0c-0.45-0.98-1.11-1.47-1.98-1.47-1.62 0-2.43 1.07-2.43 3.21s0.81 3.21 2.43 3.21c1.05 0 1.79-0.53 2.21-1.57l2.25 1.17c-1.05 1.87-2.62 2.8-4.72 2.8-1.61 0-2.91-0.49-3.88-1.49-0.98-0.99-1.46-2.36-1.46-4.1 0-1.72 0.49-3.08 1.48-4.09s2.25-1.51 3.77-1.51c2.22 0 3.81 0.87 4.77 2.62l-2.44 1.22z"/>
    </g>
   </g>
   <path id="path294" d="m297.3 74.911h-116.23c-1.25 0-2.26 1.014-2.26 2.261v39.498c0 0.28 0.22 0.51 0.51 0.51h119.73c0.28 0 0.51-0.23 0.51-0.51v-39.498c0-1.247-1.02-2.261-2.26-2.261zm-116.23 1.021h116.23c0.68 0 1.24 0.556 1.24 1.24v27.418h-83.08c-3.04 5.51-8.91 9.24-15.64 9.24-6.74 0-12.6-3.73-15.65-9.24h-4.34v-27.418c0-0.684 0.55-1.24 1.24-1.24z"/>
   <g id="g296" enable-background="new    " fill="#fff">
    <path id="path298" d="m265.61 112.88c0.08 0.16 0.19 0.29 0.32 0.38 0.13 0.1 0.29 0.17 0.47 0.22 0.18 0.04 0.37 0.07 0.56 0.07 0.13 0 0.27-0.01 0.42-0.04 0.15-0.02 0.29-0.06 0.42-0.12s0.24-0.15 0.32-0.26c0.09-0.11 0.13-0.25 0.13-0.41 0-0.18-0.05-0.33-0.17-0.44-0.11-0.12-0.26-0.21-0.45-0.28-0.19-0.08-0.4-0.14-0.63-0.2-0.24-0.06-0.48-0.12-0.72-0.19-0.25-0.06-0.49-0.13-0.73-0.22-0.23-0.09-0.45-0.21-0.63-0.35-0.19-0.15-0.34-0.33-0.45-0.54-0.12-0.22-0.18-0.48-0.18-0.78 0-0.34 0.08-0.64 0.22-0.89 0.15-0.25 0.34-0.46 0.58-0.63 0.23-0.17 0.5-0.3 0.8-0.38s0.59-0.12 0.89-0.12c0.35 0 0.69 0.04 1.01 0.12 0.31 0.08 0.6 0.2 0.85 0.38 0.25 0.17 0.44 0.4 0.59 0.67s0.22 0.6 0.22 0.98h-1.42c-0.01-0.2-0.06-0.36-0.13-0.49s-0.16-0.24-0.28-0.31c-0.12-0.08-0.25-0.13-0.4-0.16-0.16-0.03-0.32-0.05-0.5-0.05-0.12 0-0.24 0.02-0.35 0.04-0.12 0.03-0.23 0.07-0.32 0.13-0.1 0.06-0.18 0.14-0.24 0.23-0.06 0.1-0.09 0.22-0.09 0.36 0 0.13 0.02 0.24 0.07 0.32s0.15 0.15 0.29 0.22c0.15 0.07 0.35 0.14 0.61 0.21s0.59 0.15 1.01 0.26c0.12 0.02 0.3 0.07 0.52 0.13 0.22 0.07 0.44 0.17 0.65 0.32 0.22 0.14 0.41 0.33 0.57 0.57s0.24 0.55 0.24 0.92c0 0.31-0.06 0.59-0.18 0.85s-0.3 0.49-0.53 0.68-0.52 0.33-0.87 0.44c-0.34 0.11-0.74 0.16-1.2 0.16-0.36 0-0.72-0.05-1.06-0.14-0.35-0.09-0.65-0.23-0.92-0.42-0.26-0.2-0.47-0.44-0.63-0.74-0.15-0.3-0.23-0.65-0.22-1.07h1.42c0 0.23 0.04 0.42 0.12 0.57z"/>
    <path id="path300" d="m273.87 107.87l2.49 6.66h-1.52l-0.51-1.48h-2.49l-0.52 1.48h-1.48l2.52-6.66h1.51zm0.08 4.08l-0.84-2.44h-0.02l-0.87 2.44h1.73z"/>
   </g>
   <g id="g302" enable-background="new    " fill="#fff">
    <path id="path304" d="m239.18 107.87c0.32 0 0.61 0.03 0.87 0.08 0.26 0.06 0.48 0.15 0.67 0.28 0.19 0.12 0.33 0.29 0.44 0.5 0.1 0.22 0.15 0.48 0.15 0.79 0 0.33-0.08 0.61-0.23 0.84-0.15 0.22-0.38 0.4-0.68 0.55 0.41 0.12 0.72 0.32 0.93 0.62 0.2 0.29 0.3 0.65 0.3 1.07 0 0.33-0.07 0.63-0.2 0.87-0.13 0.25-0.3 0.45-0.52 0.6-0.23 0.16-0.48 0.27-0.76 0.35-0.29 0.07-0.58 0.11-0.88 0.11h-3.23v-6.66h3.14zm-0.19 2.69c0.26 0 0.48-0.06 0.65-0.18 0.16-0.13 0.25-0.33 0.25-0.61 0-0.15-0.03-0.28-0.09-0.38-0.05-0.1-0.13-0.18-0.22-0.23-0.09-0.06-0.2-0.1-0.32-0.12s-0.25-0.03-0.38-0.03h-1.37v1.55h1.48zm0.09 2.83c0.14 0 0.28-0.01 0.41-0.04s0.24-0.08 0.34-0.14c0.1-0.07 0.18-0.16 0.24-0.27s0.09-0.25 0.09-0.43c0-0.34-0.1-0.58-0.29-0.73-0.19-0.14-0.45-0.22-0.77-0.22h-1.59v1.83h1.57z"/>
    <path id="path306" d="m241.89 107.87h1.64l1.56 2.63 1.55-2.63h1.64l-2.48 4.1v2.56h-1.46v-2.59l-2.45-4.07z"/>
   </g>
   <g id="g6316_1_" transform="matrix(0.625 0 0 0.625 391.23 176.93)">
    <path id="path6318_1_" d="m-175.01-139.12c0.01 9.42-7.62 17.05-17.03 17.06s-17.05-7.62-17.05-17.03v-0.03c-0.01-9.41 7.62-17.04 17.03-17.05s17.05 7.62 17.05 17.03v0.02z" rx="29.209877" ry="29.209877" cy="252.08646" cx="475.97119" type="arc" fill="#fff"/>
    <g id="g6320_1_" transform="translate(-23.952 -89.73)">
     <path id="path6322_1_" d="m-168.22-68.055c-5.17 0-9.55 1.804-13.13 5.413-3.68 3.734-5.52 8.153-5.52 13.256s1.84 9.492 5.52 13.163c3.67 3.672 8.05 5.508 13.13 5.508 5.14 0 9.59-1.852 13.37-5.555 3.55-3.516 5.32-7.888 5.32-13.116 0-5.226-1.8-9.647-5.42-13.256-3.61-3.609-8.04-5.413-13.27-5.413zm0.05 3.36c4.23 0 7.83 1.493 10.79 4.48 2.99 2.957 4.49 6.566 4.49 10.829 0 4.294-1.46 7.857-4.39 10.689-3.09 3.05-6.72 4.574-10.89 4.574-4.18 0-7.78-1.509-10.8-4.527-3.02-3.019-4.53-6.597-4.53-10.736 0-4.138 1.52-7.748 4.58-10.829 2.93-2.987 6.51-4.48 10.75-4.48z"/>
     <path id="path6324_1_" d="m-176.5-52.021c0.75-4.698 4.06-7.208 8.2-7.208 5.96 0 9.59 4.325 9.59 10.092 0 5.627-3.86 9.999-9.68 9.999-4.01 0-7.59-2.465-8.25-7.301h4.71c0.14 2.511 1.77 3.395 4.1 3.395 2.65 0 4.37-2.465 4.37-6.233 0-3.952-1.49-6.045-4.28-6.045-2.05 0-3.82 0.744-4.19 3.301l1.37-0.007-3.71 3.702-3.7-3.702 1.47 0.007z"/>
    </g>
   </g>
   <g id="g313">
    <circle id="circle315" cy="90.225" cx="242.56" r="10.806" fill="#fff"/>
    <g id="g317">
     <path id="path319" d="m245.69 87.098c0-0.417-0.34-0.754-0.75-0.754h-4.78c-0.41 0-0.75 0.337-0.75 0.754v4.773h1.33v5.652h3.62v-5.652h1.33v-4.773z"/>
     <circle id="circle321" cy="84.083" cx="242.55" r="1.6323"/>
    </g>
    <path id="path323" fill-rule="evenodd" clip-rule="evenodd" d="m242.53 78.318c-3.23 0-5.96 1.128-8.2 3.384-2.3 2.333-3.45 5.095-3.45 8.284s1.15 5.932 3.45 8.227c2.29 2.297 5.03 3.447 8.2 3.447 3.22 0 6-1.16 8.36-3.476 2.22-2.197 3.33-4.93 3.33-8.198 0-3.267-1.13-6.028-3.39-8.284s-5.02-3.384-8.3-3.384zm0.03 2.1c2.65 0 4.9 0.934 6.75 2.801 1.87 1.847 2.81 4.103 2.81 6.767 0 2.684-0.92 4.911-2.75 6.681-1.93 1.906-4.2 2.858-6.81 2.858s-4.85-0.942-6.74-2.829c-1.89-1.886-2.84-4.123-2.84-6.71 0-2.586 0.96-4.842 2.87-6.767 1.83-1.867 4.07-2.801 6.71-2.801z"/>
   </g>
  </g>
 </g>
</svg>
